packages/core/src/svgs/tokens/mono/EUROE.svg

<svg width="24" height="24" viewBox="0 0 24 24" fill="none" xmlns="http://www.w3.org/2000/svg">
<path d="M2 2H22V5.57143H5.57143V7.71428H22V11.2857H2V2ZM2 12.7143H22V16.2857H5.57143V18.4285H22V22H2V12.7143Z" fill="white"/>
</svg>

<svg xmlns="http://www.w3.org/2000/svg" width="24" height="24" fill="none" viewBox="0 0 24 24">
    <path fill="#fff" d="M2 2h20v3.571H5.571v2.143H22v3.572H2zm0 10.714h20v3.572H5.571v2.142H22V22H2z"/>
</svg>
